X:469
T:Nkosi Sikelel' iAfrika
Z:Jack Campin, http://www.campin.me.uk/
F:Jack Campin's Nine-Note Tunebook
% last edit 03-02-2013
T:God Bless Africa
C:Enoch Sontonga
M:4/4
L:1/8
Q:1/4=84
K:G
GF GA B2 B2|A2 A2 G4   |BB AB c2 c2|
BB B2 A4   |GF GA B2 B2|A2 c2 B4   |
A4    G4   |FG A2 G4   |A4    G3  G|FG A2 G4:|
G2 FE D4-  |D8         |G2 FE D4-  |D8       |
G2 AB E4   |cB A2 G4   |FG A2 G4  |]


% == Japanese songs and tunes ===============================================

